svgs/nova_video_player.svg

<svg xmlns="http://www.w3.org/2000/svg" viewBox="0 0 192 192"><path d="m121.521 95.782-47.953 35.002V60.783Zm18.881-65.726a5.26 5.26 0 0 0-3.243 5.006v6.116a5.056 5.056 0 0 0 4.781 5.308h10.927a4.581 4.581 0 0 0 3.683-1.965 79.497 79.497 0 0 0-16.148-14.466Zm-88.685.043a79.497 79.497 0 0 0-16.248 14.444 4.578 4.578 0 0 0 3.669 1.943h10.927a5.057 5.057 0 0 0 4.78-5.308v-6.116a5.282 5.282 0 0 0-3.127-4.961ZM39.136 58.698a5.052 5.052 0 0 0-4.774 5.308v6.11a5.05 5.05 0 0 0 4.774 5.308h10.927a5.053 5.053 0 0 0 4.782-5.308v-6.11a5.056 5.056 0 0 0-4.781-5.308Zm102.806 0a5.055 5.055 0 0 0-4.781 5.308v6.11a5.055 5.055 0 0 0 4.781 5.308h10.928a5.052 5.052 0 0 0 4.773-5.308v-6.11a5.048 5.048 0 0 0-4.774-5.308ZM39.136 87.637a5.052 5.052 0 0 0-4.774 5.308v6.11a5.052 5.052 0 0 0 4.774 5.308h10.927a5.058 5.058 0 0 0 4.781-5.308v-6.11a5.055 5.055 0 0 0-4.781-5.308Zm102.806 0a5.055 5.055 0 0 0-4.781 5.308v6.11a5.053 5.053 0 0 0 4.781 5.308h10.928a5.05 5.05 0 0 0 4.774-5.308v-6.11a5.048 5.048 0 0 0-4.774-5.308ZM39.136 116.576a5.05 5.05 0 0 0-4.774 5.308v6.109a5.05 5.05 0 0 0 4.774 5.308h10.927a5.053 5.053 0 0 0 4.781-5.308v-6.109a5.053 5.053 0 0 0-4.781-5.308Zm102.806 0a5.054 5.054 0 0 0-4.781 5.308v6.109a5.054 5.054 0 0 0 4.781 5.308h10.928a5.049 5.049 0 0 0 4.774-5.308v-6.109a5.049 5.049 0 0 0-4.774-5.308ZM39.136 145.514a4.587 4.587 0 0 0-3.669 1.943 79.507 79.507 0 0 0 16.25 14.444 5.28 5.28 0 0 0 3.127-4.961v-6.118a5.056 5.056 0 0 0-4.781-5.308Zm102.806 0a5.055 5.055 0 0 0-4.781 5.308v6.118a5.28 5.28 0 0 0 3.128 4.961 79.502 79.502 0 0 0 16.249-14.444 4.578 4.578 0 0 0-3.669-1.943Z" fill="none" stroke="#000" stroke-width="8" stroke-linecap="round" stroke-linejoin="round"/><path d="M96 16.5a79.529 79.529 0 0 0-56.215 23.285A79.529 79.529 0 0 0 16.5 96a79.529 79.529 0 0 0 23.285 56.215A79.529 79.529 0 0 0 96 175.5a79.529 79.529 0 0 0 56.215-23.285A79.529 79.529 0 0 0 175.5 96a79.529 79.529 0 0 0-23.285-56.215A79.529 79.529 0 0 0 96 16.5Z" fill="none" stroke="#000" stroke-width="8" stroke-linecap="round" stroke-linejoin="round"/><path d="m73.984 109.397 16.759-22.419 6.173 25.033 12.104-24.627" fill="none" stroke="#000" stroke-width="8" stroke-linecap="round" stroke-linejoin="round"/></svg>

<svg
    xmlns="http://www.w3.org/2000/svg"
    viewBox="0 0 192 192"
    id="vector">
    <path
        id="path"
        d="M 121.521 95.782 L 73.568 130.784 L 73.568 60.783 Z M 140.402 30.056 C 139.418 30.464 138.581 31.161 138.002 32.055 C 137.423 32.949 137.129 33.998 137.159 35.062 L 137.159 41.178 C 137.09 42.515 137.555 43.826 138.451 44.821 C 139.347 45.816 140.603 46.415 141.94 46.486 L 152.867 46.486 C 153.593 46.473 154.305 46.289 154.945 45.947 C 155.586 45.606 156.136 45.117 156.55 44.521 C 151.853 38.984 146.42 34.117 140.402 30.055 Z M 51.717 30.099 C 45.665 34.147 40.198 39.007 35.469 44.543 C 35.884 45.133 36.433 45.616 37.071 45.954 C 37.708 46.291 38.417 46.474 39.138 46.486 L 50.065 46.486 C 51.402 46.415 52.657 45.815 53.553 44.82 C 54.449 43.826 54.914 42.515 54.845 41.178 L 54.845 35.062 C 54.872 34.019 54.59 32.99 54.034 32.107 C 53.477 31.224 52.671 30.526 51.718 30.101 Z M 39.136 58.698 C 37.8 58.769 36.545 59.369 35.65 60.364 C 34.755 61.359 34.292 62.67 34.362 64.006 L 34.362 70.116 C 34.292 71.453 34.755 72.764 35.65 73.759 C 36.545 74.754 37.8 75.353 39.136 75.424 L 50.063 75.424 C 51.4 75.354 52.656 74.755 53.552 73.76 C 54.449 72.765 54.914 71.454 54.845 70.116 L 54.845 64.006 C 54.914 62.669 54.449 61.358 53.553 60.363 C 52.657 59.368 51.401 58.769 50.064 58.698 Z M 141.942 58.698 C 140.605 58.769 139.35 59.368 138.454 60.363 C 137.558 61.358 137.092 62.669 137.161 64.006 L 137.161 70.116 C 137.092 71.453 137.557 72.765 138.454 73.76 C 139.35 74.755 140.605 75.354 141.942 75.424 L 152.87 75.424 C 154.206 75.353 155.461 74.753 156.356 73.758 C 157.25 72.763 157.714 71.452 157.643 70.116 L 157.643 64.006 C 157.714 62.67 157.25 61.359 156.355 60.364 C 155.461 59.369 154.206 58.769 152.869 58.698 Z M 39.136 87.637 C 37.8 87.708 36.545 88.308 35.65 89.303 C 34.755 90.298 34.292 91.609 34.362 92.945 L 34.362 99.055 C 34.292 100.391 34.755 101.702 35.65 102.697 C 36.545 103.692 37.8 104.292 39.136 104.363 L 50.063 104.363 C 51.4 104.292 52.656 103.693 53.552 102.698 C 54.448 101.703 54.913 100.392 54.844 99.055 L 54.844 92.945 C 54.913 91.608 54.448 90.296 53.552 89.302 C 52.656 88.307 51.4 87.708 50.063 87.637 Z M 141.942 87.637 C 140.605 87.708 139.35 88.307 138.454 89.302 C 137.558 90.297 137.092 91.608 137.161 92.945 L 137.161 99.055 C 137.092 100.392 137.557 101.703 138.454 102.698 C 139.35 103.693 140.605 104.292 141.942 104.363 L 152.87 104.363 C 154.207 104.292 155.461 103.692 156.356 102.697 C 157.251 101.702 157.715 100.391 157.644 99.055 L 157.644 92.945 C 157.715 91.609 157.251 90.298 156.356 89.303 C 155.461 88.308 154.207 87.708 152.87 87.637 Z M 39.136 116.576 C 37.8 116.647 36.545 117.246 35.65 118.241 C 34.755 119.236 34.292 120.547 34.362 121.884 L 34.362 127.993 C 34.292 129.33 34.755 130.641 35.65 131.636 C 36.545 132.631 37.8 133.23 39.136 133.301 L 50.063 133.301 C 51.4 133.231 52.656 132.632 53.552 131.637 C 54.448 130.642 54.913 129.331 54.844 127.993 L 54.844 121.884 C 54.913 120.547 54.448 119.235 53.552 118.24 C 52.656 117.245 51.4 116.646 50.063 116.576 Z M 141.942 116.576 C 140.605 116.646 139.35 117.246 138.454 118.24 C 137.558 119.235 137.092 120.547 137.161 121.884 L 137.161 127.993 C 137.092 129.331 137.557 130.642 138.454 131.637 C 139.35 132.632 140.605 133.231 141.942 133.301 L 152.87 133.301 C 154.207 133.23 155.461 132.631 156.356 131.636 C 157.251 130.641 157.715 129.33 157.644 127.993 L 157.644 121.884 C 157.715 120.547 157.251 119.236 156.356 118.241 C 155.461 117.246 154.207 116.647 152.87 116.576 Z M 39.136 145.514 C 38.415 145.526 37.706 145.709 37.069 146.046 C 36.431 146.384 35.883 146.867 35.467 147.457 C 40.197 152.993 45.664 157.853 51.717 161.901 C 52.67 161.476 53.476 160.777 54.032 159.894 C 54.589 159.011 54.871 157.983 54.844 156.94 L 54.844 150.822 C 54.913 149.485 54.448 148.174 53.552 147.179 C 52.656 146.184 51.4 145.585 50.063 145.514 Z M 141.942 145.514 C 140.605 145.585 139.35 146.184 138.454 147.179 C 137.558 148.174 137.092 149.485 137.161 150.822 L 137.161 156.94 C 137.134 157.983 137.416 159.011 137.973 159.894 C 138.529 160.777 139.335 161.476 140.289 161.901 C 146.341 157.853 151.809 152.993 156.538 147.457 C 156.123 146.867 155.574 146.384 154.936 146.046 C 154.299 145.709 153.59 145.526 152.869 145.514 Z"
        fill="none"
        stroke="#000000"
        stroke-width="8"
        stroke-linecap="round"
        stroke-linejoin="round"/>
    <path
        id="path_1"
        d="M 96 16.5 C 74.923 16.5 54.688 24.882 39.785 39.785 C 24.882 54.688 16.5 74.923 16.5 96 C 16.5 117.077 24.882 137.312 39.785 152.215 C 54.688 167.118 74.923 175.5 96 175.5 C 117.077 175.5 137.312 167.118 152.215 152.215 C 167.118 137.312 175.5 117.077 175.5 96 C 175.5 74.923 167.118 54.688 152.215 39.785 C 137.312 24.882 117.077 16.5 96 16.5 Z"
        fill="none"
        stroke="#000000"
        stroke-width="8"
        stroke-linecap="round"
        stroke-linejoin="round"/>
    <path
        id="path_2"
        d="M 73.984 109.397 L 90.743 86.978 L 96.916 112.011 L 109.02 87.384"
        fill="none"
        stroke="#000000"
        stroke-width="8"
        stroke-linecap="round"
        stroke-linejoin="round"/>
</svg>
